animator-ulyanovsk/img/bg_promo__circles-group.svg

<svg xmlns="http://www.w3.org/2000/svg" width="2004" height="429"><defs><linearGradient id="PSgrad_0" x1="0%" x2="90.631%" y1="0%" y2="42.262%"><stop offset="0%" stop-color="#EB93D0"/><stop offset="100%" stop-color="#C64A97"/></linearGradient></defs><path fill-rule="evenodd" d="M253 42c24.3 0 44 19.699 44 44 0 24.3-19.7 44-44 44-24.301 0-44-19.7-44-44 0-24.301 19.699-44 44-44z"/><path fill="url(#PSgrad_0)" d="M253 42c24.3 0 44 19.699 44 44 0 24.3-19.7 44-44 44-24.301 0-44-19.7-44-44 0-24.301 19.699-44 44-44z"/><path fill-rule="evenodd" d="M1656 320c18.225 0 33 14.775 33 33s-14.775 33-33 33-33-14.775-33-33 14.775-33 33-33z"/><path fill="url(#PSgrad_0)" d="M1656 320c18.225 0 33 14.775 33 33s-14.775 33-33 33-33-14.775-33-33 14.775-33 33-33z"/><path fill-rule="evenodd" d="M1940.5 67c35.07 0 63.5 28.43 63.5 63.5s-28.43 63.5-63.5 63.5-63.5-28.43-63.5-63.5 28.43-63.5 63.5-63.5z"/><path fill="url(#PSgrad_0)" d="M1940.5 67c35.07 0 63.5 28.43 63.5 63.5s-28.43 63.5-63.5 63.5-63.5-28.43-63.5-63.5 28.43-63.5 63.5-63.5z"/><path fill-rule="evenodd" d="M38 259c20.987 0 38 17.013 38 38s-17.013 38-38 38-38-17.013-38-38 17.013-38 38-38z"/><path fill="url(#PSgrad_0)" d="M38 259c20.987 0 38 17.013 38 38s-17.013 38-38 38-38-17.013-38-38 17.013-38 38-38z"/><path fill-rule="evenodd" d="M512 391c10.493 0 19 8.507 19 19s-8.507 19-19 19-19-8.507-19-19 8.507-19 19-19z"/><path fill="url(#PSgrad_0)" d="M512 391c10.493 0 19 8.507 19 19s-8.507 19-19 19-19-8.507-19-19 8.507-19 19-19z"/><path fill-rule="evenodd" d="M1289 0c10.493 0 19 8.507 19 19s-8.507 19-19 19-19-8.507-19-19 8.507-19 19-19z"/><path fill="url(#PSgrad_0)" d="M1289 0c10.493 0 19 8.507 19 19s-8.507 19-19 19-19-8.507-19-19 8.507-19 19-19z"/></svg>

<svg 
 xmlns="http://www.w3.org/2000/svg"
 xmlns:xlink="http://www.w3.org/1999/xlink"
 width="2004px" height="429px">
<defs>
<linearGradient id="PSgrad_0" x1="0%" x2="90.631%" y1="0%" y2="42.262%">
  <stop offset="0%" stop-color="rgb(235,147,208)" stop-opacity="1" />
  <stop offset="100%" stop-color="rgb(198,74,151)" stop-opacity="1" />
</linearGradient>
</defs>

<path fill-rule="evenodd"  fill="rgb(0, 0, 0)"
 d="M253.000,42.000 C277.300,42.000 297.000,61.699 297.000,86.000 C297.000,110.300 277.300,130.000 253.000,130.000 C228.699,130.000 209.000,110.300 209.000,86.000 C209.000,61.699 228.699,42.000 253.000,42.000 Z"/>
<path fill="url(#PSgrad_0)"
 d="M253.000,42.000 C277.300,42.000 297.000,61.699 297.000,86.000 C297.000,110.300 277.300,130.000 253.000,130.000 C228.699,130.000 209.000,110.300 209.000,86.000 C209.000,61.699 228.699,42.000 253.000,42.000 Z"/>
<path fill-rule="evenodd"  fill="rgb(0, 0, 0)"
 d="M1656.000,320.000 C1674.225,320.000 1689.000,334.775 1689.000,353.000 C1689.000,371.225 1674.225,386.000 1656.000,386.000 C1637.775,386.000 1623.000,371.225 1623.000,353.000 C1623.000,334.775 1637.775,320.000 1656.000,320.000 Z"/>
<path fill="url(#PSgrad_0)"
 d="M1656.000,320.000 C1674.225,320.000 1689.000,334.775 1689.000,353.000 C1689.000,371.225 1674.225,386.000 1656.000,386.000 C1637.775,386.000 1623.000,371.225 1623.000,353.000 C1623.000,334.775 1637.775,320.000 1656.000,320.000 Z"/>
<path fill-rule="evenodd"  fill="rgb(0, 0, 0)"
 d="M1940.500,67.000 C1975.570,67.000 2004.000,95.430 2004.000,130.500 C2004.000,165.570 1975.570,194.000 1940.500,194.000 C1905.430,194.000 1877.000,165.570 1877.000,130.500 C1877.000,95.430 1905.430,67.000 1940.500,67.000 Z"/>
<path fill="url(#PSgrad_0)"
 d="M1940.500,67.000 C1975.570,67.000 2004.000,95.430 2004.000,130.500 C2004.000,165.570 1975.570,194.000 1940.500,194.000 C1905.430,194.000 1877.000,165.570 1877.000,130.500 C1877.000,95.430 1905.430,67.000 1940.500,67.000 Z"/>
<path fill-rule="evenodd"  fill="rgb(0, 0, 0)"
 d="M38.000,259.000 C58.987,259.000 76.000,276.013 76.000,297.000 C76.000,317.987 58.987,335.000 38.000,335.000 C17.013,335.000 0.000,317.987 0.000,297.000 C0.000,276.013 17.013,259.000 38.000,259.000 Z"/>
<path fill="url(#PSgrad_0)"
 d="M38.000,259.000 C58.987,259.000 76.000,276.013 76.000,297.000 C76.000,317.987 58.987,335.000 38.000,335.000 C17.013,335.000 0.000,317.987 0.000,297.000 C0.000,276.013 17.013,259.000 38.000,259.000 Z"/>
<path fill-rule="evenodd"  fill="rgb(0, 0, 0)"
 d="M512.000,391.000 C522.493,391.000 531.000,399.507 531.000,410.000 C531.000,420.493 522.493,429.000 512.000,429.000 C501.507,429.000 493.000,420.493 493.000,410.000 C493.000,399.507 501.507,391.000 512.000,391.000 Z"/>
<path fill="url(#PSgrad_0)"
 d="M512.000,391.000 C522.493,391.000 531.000,399.507 531.000,410.000 C531.000,420.493 522.493,429.000 512.000,429.000 C501.507,429.000 493.000,420.493 493.000,410.000 C493.000,399.507 501.507,391.000 512.000,391.000 Z"/>
<path fill-rule="evenodd"  fill="rgb(0, 0, 0)"
 d="M1289.000,-0.000 C1299.493,-0.000 1308.000,8.507 1308.000,19.000 C1308.000,29.493 1299.493,38.000 1289.000,38.000 C1278.507,38.000 1270.000,29.493 1270.000,19.000 C1270.000,8.507 1278.507,-0.000 1289.000,-0.000 Z"/>
<path fill="url(#PSgrad_0)"
 d="M1289.000,-0.000 C1299.493,-0.000 1308.000,8.507 1308.000,19.000 C1308.000,29.493 1299.493,38.000 1289.000,38.000 C1278.507,38.000 1270.000,29.493 1270.000,19.000 C1270.000,8.507 1278.507,-0.000 1289.000,-0.000 Z"/>
</svg>
